src/icons/plus-circle.svg

<svg viewBox="0 0 20 20" fill="none" xmlns="http://www.w3.org/2000/svg">
  <path d="M9.99605 18.3334C14.5635 18.3334 18.3334 14.5617 18.3334 10.0001C18.3334 5.43851 14.5554 1.66675 9.988 1.66675C5.42863 1.66675 1.66675 5.43851 1.66675 10.0001C1.66675 14.5617 5.43669 18.3334 9.99605 18.3334ZM6.09723 10.0081C6.09723 9.53264 6.43556 9.20221 6.90277 9.20221H9.19857V6.9053C9.19857 6.43786 9.52078 6.10743 9.97994 6.10743C10.4552 6.10743 10.7855 6.43786 10.7855 6.9053L10.7855 9.20221L13.0893 9.20221C13.5485 9.20221 13.8868 9.53264 13.8868 10.0081C13.8868 10.4675 13.5485 10.798 13.0893 10.798H10.7855V13.0949C10.7855 13.5542 10.4552 13.8927 9.97994 13.8927C9.52078 13.8927 9.19857 13.5542 9.19857 13.0949L9.19857 10.798L6.90277 10.798C6.43556 10.798 6.09723 10.4675 6.09723 10.0081Z" fill="currentColor"/>
</svg>

<svg viewBox="0 0 20 20" fill="none" xmlns="http://www.w3.org/2000/svg"><path d="M9.996 18.333c4.567 0 8.337-3.771 8.337-8.333 0-4.561-3.778-8.333-8.345-8.333-4.56 0-8.321 3.772-8.321 8.333 0 4.562 3.77 8.333 8.33 8.333zm-3.899-8.325c0-.475.339-.806.806-.806h2.296V6.905c0-.467.322-.798.78-.798.476 0 .807.33.807.798v2.297h2.303c.46 0 .798.33.798.806 0 .46-.338.79-.798.79h-2.303v2.297c0 .46-.33.798-.806.798-.46 0-.781-.339-.781-.798v-2.297H6.903c-.467 0-.806-.33-.806-.79z" fill="currentColor"/></svg>
